svg/fluentui-system-icons/ic_fluent_calendar_month_28_regular.svg

<svg width="28" height="28" viewBox="0 0 28 28" fill="none" xmlns="http://www.w3.org/2000/svg">
<path d="M21.75 3C23.5449 3 25 4.45507 25 6.25V21.75C25 23.5449 23.5449 25 21.75 25H6.25C4.45507 25 3 23.5449 3 21.75V6.25C3 4.45507 4.45507 3 6.25 3H21.75ZM21.75 4.5H6.25C5.2835 4.5 4.5 5.2835 4.5 6.25V21.75C4.5 22.7165 5.2835 23.5 6.25 23.5H21.75C22.7165 23.5 23.5 22.7165 23.5 21.75V6.25C23.5 5.2835 22.7165 4.5 21.75 4.5ZM8.5 15.5C9.32843 15.5 10 16.1716 10 17C10 17.8284 9.32843 18.5 8.5 18.5C7.67157 18.5 7 17.8284 7 17C7 16.1716 7.67157 15.5 8.5 15.5ZM14 15.5C14.8284 15.5 15.5 16.1716 15.5 17C15.5 17.8284 14.8284 18.5 14 18.5C13.1716 18.5 12.5 17.8284 12.5 17C12.5 16.1716 13.1716 15.5 14 15.5ZM8.5 9.5C9.32843 9.5 10 10.1716 10 11C10 11.8284 9.32843 12.5 8.5 12.5C7.67157 12.5 7 11.8284 7 11C7 10.1716 7.67157 9.5 8.5 9.5ZM14 9.5C14.8284 9.5 15.5 10.1716 15.5 11C15.5 11.8284 14.8284 12.5 14 12.5C13.1716 12.5 12.5 11.8284 12.5 11C12.5 10.1716 13.1716 9.5 14 9.5ZM19.5 9.5C20.3284 9.5 21 10.1716 21 11C21 11.8284 20.3284 12.5 19.5 12.5C18.6716 12.5 18 11.8284 18 11C18 10.1716 18.6716 9.5 19.5 9.5Z" fill="#212121"/>
</svg>

<svg xmlns="http://www.w3.org/2000/svg" width="28" height="28"><path d="M21.75 3A3.25 3.25 0 0 1 25 6.25v15.5A3.25 3.25 0 0 1 21.75 25H6.25A3.25 3.25 0 0 1 3 21.75V6.25A3.25 3.25 0 0 1 6.25 3h15.5Zm0 1.5H6.25A1.75 1.75 0 0 0 4.5 6.25v15.5c0 .966.784 1.75 1.75 1.75h15.5a1.75 1.75 0 0 0 1.75-1.75V6.25a1.75 1.75 0 0 0-1.75-1.75ZM8.5 15.5a1.5 1.5 0 1 1 0 3 1.5 1.5 0 0 1 0-3Zm5.5 0a1.5 1.5 0 1 1 0 3 1.5 1.5 0 0 1 0-3Zm-5.5-6a1.5 1.5 0 1 1 0 3 1.5 1.5 0 0 1 0-3Zm5.5 0a1.5 1.5 0 1 1 0 3 1.5 1.5 0 0 1 0-3Zm5.5 0a1.5 1.5 0 1 1 0 3 1.5 1.5 0 0 1 0-3Z"/></svg>
